projects/plugins/boost/app/assets/src/images/logo-small.svg

<svg fill="none" height="27" viewBox="0 0 152 27" width="152" xmlns="http://www.w3.org/2000/svg"><g transform="scale(.6785714 .6750001)"><path d="m167.385 14.0357c0 .8469-.189 1.6226-.568 2.3285-.38.706-1.006 1.291-1.879 1.7592v.0584c.485.1651.929.3771 1.332.6348.403.2576.747.5636 1.034.9194.285.3558.51.7572.67 1.2041.161.4484.24.9494.24 1.503 0 .4768-.075.9878-.226 1.5329-.15.5451-.414 1.0732-.794 1.5841-.379.511-.883.9807-1.514 1.4077-.63.4284-1.427.7685-2.388 1.0219-.243.0583-.507.1124-.794.1608s-.605.0897-.955.1238c-.349.0342-.738.0584-1.164.0726-.428.0143-.908.0214-1.442.0214h-5.664v-19.5276h6.772c1.446 0 2.612.1466 3.495.43837.661.2135 1.233.49389 1.719.83973.485.3459.886.7302 1.201 1.1529.316.4227.548.871.699 1.3421.151.4712.226.9465.226 1.4219zm-7.326 2.8466c.97 0 1.694-.0968 2.17-.2918.534-.2234.915-.5323 1.144-.9265.227-.3943.342-.8398.342-1.3351 0-.5152-.131-.9749-.394-1.3792-.262-.4042-.708-.7031-1.339-.8981-.263-.0782-.568-.1337-.917-.1679-.35-.0342-.782-.0512-1.297-.0512h-2.927v5.0498zm-3.218 2.9918v5.5024h2.33c.621 0 1.155-.0171 1.602-.0512.446-.0342.83-.0897 1.151-.168.496-.1067.907-.2505 1.238-.4312.33-.1794.597-.3843.801-.6135.205-.2277.35-.481.438-.7586.088-.2775.13-.5707.13-.8824 0-.5451-.15-1.0219-.451-1.4304s-.771-.7145-1.413-.9195c-.282-.0882-.612-.1508-.99-.1893-.379-.0384-.864-.0583-1.456-.0583z" fill="#787c82"/><path d="m184.423 21.3047c0 1.1087-.165 2.1207-.496 3.0359s-.804 1.698-1.42 2.3498c-.617.6519-1.362 1.1557-2.236 1.5101-.873.3559-1.849.5324-2.927.5324-1.107 0-2.099-.178-2.978-.5324-.88-.3544-1.624-.8582-2.236-1.5101-.612-.6518-1.081-1.4346-1.405-2.3498-.325-.9138-.488-1.9272-.488-3.0359 0-1.1088.165-2.1207.495-3.0359.33-.9137.804-1.698 1.421-2.3498.616-.6519 1.362-1.1558 2.235-1.5102.874-.3558 1.849-.5323 2.927-.5323 1.107 0 2.1.1779 2.979.5323.879.3559 1.623.8583 2.235 1.5102.612.6518 1.08 1.4346 1.405 2.3498s.489 1.9271.489 3.0359zm-3.568 0c0-.7487-.088-1.4105-.263-1.9855-.175-.5736-.418-1.0561-.729-1.4446-.311-.3886-.684-.6804-1.122-.8754-.437-.195-.913-.2917-1.427-.2917-.506 0-.973.0967-1.405.2917-.431.195-.803.4868-1.113.8754-.311.3899-.554.871-.729 1.4446-.174.5736-.262 1.2354-.262 1.9855 0 .7486.088 1.4105.262 1.9855.175.5736.421 1.0532.736 1.4375s.689.6761 1.121.8753c.431.1993.904.2989 1.42.2989.514 0 .986-.0996 1.413-.2989.428-.1992.795-.491 1.106-.8753s.554-.8639.729-1.4375c.175-.575.263-1.2369.263-1.9855z" fill="#787c82"/><path d="m200.424 21.3047c0 1.1087-.164 2.1207-.495 3.0359s-.804 1.698-1.42 2.3498c-.617.6519-1.363 1.1557-2.236 1.5101-.873.3559-1.849.5324-2.927.5324-1.107 0-2.099-.178-2.978-.5324-.88-.3544-1.624-.8582-2.236-1.5101-.612-.6518-1.081-1.4346-1.405-2.3498-.325-.9138-.488-1.9272-.488-3.0359 0-1.1088.165-2.1207.495-3.0359.33-.9137.804-1.698 1.421-2.3498.616-.6519 1.362-1.1558 2.235-1.5102.874-.3558 1.849-.5323 2.927-.5323 1.107 0 2.1.1779 2.979.5323.879.3559 1.623.8583 2.235 1.5102.612.6518 1.08 1.4346 1.405 2.3498s.488 1.9271.488 3.0359zm-3.569 0c0-.7487-.088-1.4105-.262-1.9855-.175-.5736-.418-1.0561-.729-1.4446-.311-.3886-.685-.6804-1.122-.8754s-.913-.2917-1.427-.2917c-.506 0-.973.0967-1.405.2917s-.804.4868-1.114.8754c-.311.3899-.553.871-.728 1.4446s-.263 1.2354-.263 1.9855c0 .7486.088 1.4105.263 1.9855.175.5736.42 1.0532.736 1.4375.315.3843.688.6761 1.12.8753.432.1993.905.2989 1.42.2989s.986-.0996 1.414-.2989c.427-.1992.795-.491 1.106-.8753s.554-.8639.729-1.4375c.176-.575.262-1.2369.262-1.9855z" fill="#787c82"/><path d="m209.184 24.2663c0-.3017-.086-.5493-.255-.7443-.17-.195-.396-.3573-.677-.4897-.281-.1309-.604-.2448-.969-.343-.363-.0967-.745-.195-1.143-.2917-.506-.1367-.99-.2947-1.456-.474s-.876-.4156-1.23-.7074c-.355-.2918-.636-.659-.845-1.1016s-.314-.9849-.314-1.6268c0-.7885.141-1.4717.422-2.051s.663-1.0575 1.143-1.4375c.481-.38 1.039-.6619 1.675-.8469s1.308-.2775 2.017-.2775c.863 0 1.674.0711 2.431.212.757.141 1.442.3231 2.054.5466v2.8181c-.321-.1067-.658-.2064-1.013-.2989s-.714-.1722-1.078-.2405c-.363-.0683-.725-.1238-1.085-.168-.359-.0441-.699-.0654-1.02-.0654-.407 0-.752.0384-1.033.1167-.282.0783-.51.1822-.685.3131s-.301.2818-.379.4526-.117.3473-.117.5323c0 .3217.086.5836.255.7885.17.205.404.3701.705.4968.301.1266.617.2305.948.3145.329.0826.65.1637.961.2405.486.1167.97.2577 1.456.4228s.922.3971 1.311.6931c.388.2975.706.6818.954 1.1529.247.4725.371 1.0731.371 1.8019 0 .7984-.15 1.493-.452 2.0865-.301.5935-.721 1.0874-1.259 1.4817-.539.3942-1.185.686-1.938.8753-.752.1893-1.579.2846-2.482.2846-.894 0-1.698-.0711-2.41-.212-.713-.1409-1.304-.3189-1.77-.5323v-2.7869c.757.2819 1.456.474 2.098.5765.64.1025 1.238.1537 1.791.1537.427 0 .825-.0313 1.194-.0954.369-.0626.686-.1622.954-.2989.267-.1366.479-.3088.634-.518.159-.2093.236-.4612.236-.753z" fill="#787c82"/><path d="m224 28.3528c-.389.1167-.852.2092-1.391.2775-.538.0683-1.041.1025-1.507.1025-1.184 0-2.153-.1921-2.905-.5764-.753-.3843-1.284-.9366-1.595-1.6567-.223-.5153-.336-1.2155-.336-2.1022v-7.3257h-2.636v-2.8466h2.636v-3.9539h3.452v3.9553h4.077v2.8466h-4.077v6.8745c0 .5451.082.9493.247 1.2112.291.4484.869.6718 1.733.6718.397 0 .793-.0313 1.187-.0953.393-.0627.764-.1438 1.113-.2406v2.858z" fill="#787c82"/><g fill="#000"><path d="m50.6252 34.6344c-.5849-.8962-1.1289-1.7909-1.6745-2.6478 2.882-1.7531 3.8553-3.1541 3.8553-5.8034v-15.3065h-3.3883v-2.91982h7.2059v17.44802c0 4.4402-1.2846 6.9323-5.9984 9.2295z"/><path d="m80.8104 24.1971c0 1.4796 1.0518 1.6353 1.7531 1.6353.7012 0 1.7138-.2343 2.4921-.467v2.7264c-1.0911.3506-2.2201.6226-3.7782.6226-1.8695 0-4.0503-.7012-4.0503-3.9732v-8.0235h-1.9859v-2.7657h1.9859v-4.08808h3.5833v4.08958h4.5173v2.7657h-4.5173z"/><path d="m88.2886 35.9972v-22.0832h3.4276v1.3239c1.3632-1.0518 2.8821-1.7138 4.7516-1.7138 3.2326 0 5.8032 2.2594 5.8032 7.1273 0 4.8301-2.8033 8.0235-7.4385 8.0235-1.1289 0-2.0251-.1556-2.9606-.3506v7.6336h-3.5833zm7.2437-19.5124c-1.0519 0-2.3758.5062-3.6226 1.5974v7.5172c.7783.1557 1.5974.2721 2.6871.2721 2.5314 0 3.9732-1.5975 3.9732-4.9465 0-3.077-1.0519-4.4402-3.0377-4.4402z"/><path d="m116.368 28.3637h-3.349v-1.5974h-.078c-1.169.8962-2.61 1.8695-4.752 1.8695-1.869 0-3.895-1.3632-3.895-4.1289 0-3.6997 3.155-4.4009 5.375-4.7123l3.154-.4277v-.4277c0-1.948-.779-2.5707-2.61-2.5707-.896 0-2.999.2721-4.713.9733l-.311-2.8821c1.558-.5455 3.7-.9339 5.492-.9339 3.505 0 5.764 1.4024 5.764 5.5691v9.2688zm-3.583-6.7373-2.961.4669c-.896.1164-1.83.662-1.83 1.9859 0 1.1682.662 1.8302 1.635 1.8302 1.052 0 2.181-.6227 3.154-1.3239v-2.9591z"/><path d="m131.169 27.8968c-1.48.5062-2.804.8176-4.48.8176-5.374 0-7.517-3.077-7.517-7.555 0-4.7123 2.961-7.6336 7.75-7.6336 1.791 0 2.882.3113 4.089.7012v3.0377c-1.051-.3899-2.57-.8176-4.05-.8176-2.181 0-4.05 1.1682-4.05 4.5173 0 3.6997 1.869 4.8301 4.245 4.8301 1.129 0 2.376-.2342 4.05-.8962v2.9985z"/><path d="m137.945 20.1468c.312-.3506.546-.7013 5.063-6.1933h4.673l-5.842 6.8552 6.386 7.5943h-4.673l-5.569-6.8552v6.8552h-3.582v-20.4464h3.584v12.1902z"/><path d="m72.5529 27.8966c-1.8695.5849-3.4669.8176-5.3364.8176-4.5959 0-7.4387-2.2972-7.4387-7.6729 0-3.9339 2.4151-7.5172 7.0488-7.5172 4.5958 0 6.1933 3.1934 6.1933 6.2311 0 1.0126-.0786 1.5582-.1164 2.1415h-9.2688c.0786 3.1541 1.8695 3.8947 4.5566 3.8947 1.4795 0 2.8034-.3507 4.3238-.8962v2.9984h.0378zm-3.2705-8.3741c0-1.7531-.5848-3.272-2.4921-3.272-1.7909 0-2.8821 1.2846-3.1163 3.272z"/></g><path d="m20 0c-11.03053 0-20 8.96947-20 20 0 11.0305 8.96947 20 20 20 11.0305 0 20-8.9695 20-20 0-11.03053-8.9695-20-20-20zm-1.0305 23.3206h-9.96187l9.96187-19.3893zm2.0229 12.7099v-19.3893h9.9618z" fill="#069e08"/></g></svg>

<svg xmlns="http://www.w3.org/2000/svg" width="152" height="27" viewBox="0 0 152 27" fill="none">
<g transform="matrix(0.6785714 0 0 0.6750001 0 0)">
    <path d="M167.385 14.0357C 167.385 14.8826 167.196 15.6583 166.817 16.3642C 166.437 17.0702 165.811 17.6552 164.938 18.1234L164.938 18.1234L164.938 18.1818C 165.423 18.3469 165.867 18.5589 166.27 18.8166C 166.673 19.0742 167.017 19.3802 167.304 19.736C 167.589 20.0918 167.814 20.4932 167.974 20.9401C 168.135 21.3885 168.214 21.8895 168.214 22.4431C 168.214 22.9199 168.139 23.4309 167.988 23.976C 167.838 24.5211 167.574 25.0492 167.194 25.5601C 166.815 26.0711 166.311 26.5408 165.68 26.9678C 165.05 27.3962 164.253 27.7363 163.292 27.9897C 163.049 28.048 162.785 28.1021 162.498 28.1505C 162.211 28.1989 161.893 28.2402 161.543 28.2743C 161.194 28.3085 160.805 28.3327 160.379 28.3469C 159.951 28.3612 159.471 28.3683 158.937 28.3683L158.937 28.3683L153.273 28.3683L153.273 8.8407L160.045 8.8407C 161.491 8.8407 162.657 8.9873 163.54 9.27907C 164.201 9.49257 164.773 9.77296 165.259 10.1188C 165.744 10.4647 166.145 10.849 166.46 11.2717C 166.776 11.6944 167.008 12.1427 167.159 12.6138C 167.31 13.085 167.385 13.5603 167.385 14.0357zM160.059 16.8823C 161.029 16.8823 161.753 16.7855 162.229 16.5905C 162.763 16.3671 163.144 16.0582 163.373 15.664C 163.6 15.2697 163.715 14.8242 163.715 14.3289C 163.715 13.8137 163.584 13.354 163.321 12.9497C 163.059 12.5455 162.613 12.2466 161.982 12.0516C 161.719 11.9734 161.414 11.9179 161.065 11.8837C 160.715 11.8495 160.283 11.8325 159.768 11.8325L159.768 11.8325L156.841 11.8325L156.841 16.8823L160.059 16.8823zM156.841 19.8741L156.841 25.3765L159.171 25.3765C 159.792 25.3765 160.326 25.3594 160.773 25.3253C 161.219 25.2911 161.603 25.2356 161.924 25.1573C 162.42 25.0506 162.831 24.9068 163.162 24.7261C 163.492 24.5467 163.759 24.3418 163.963 24.1126C 164.168 23.8849 164.313 23.6316 164.401 23.354C 164.489 23.0765 164.531 22.7833 164.531 22.4716C 164.531 21.9265 164.381 21.4497 164.08 21.0412C 163.779 20.6327 163.309 20.3267 162.667 20.1217C 162.385 20.0335 162.055 19.9709 161.677 19.9324C 161.298 19.894 160.813 19.8741 160.221 19.8741L160.221 19.8741L156.841 19.8741z" fill="#787C82" />
    <path d="M184.423 21.3047C 184.423 22.4134 184.258 23.4254 183.927 24.3406C 183.596 25.2558 183.123 26.0386 182.507 26.6904C 181.89 27.3423 181.145 27.8461 180.271 28.2005C 179.398 28.5564 178.422 28.7329 177.344 28.7329C 176.237 28.7329 175.245 28.5549 174.366 28.2005C 173.486 27.8461 172.742 27.3423 172.13 26.6904C 171.518 26.0386 171.049 25.2558 170.725 24.3406C 170.4 23.4268 170.237 22.4134 170.237 21.3047C 170.237 20.1959 170.402 19.184 170.732 18.2688C 171.062 17.3551 171.536 16.5708 172.153 15.919C 172.769 15.2671 173.515 14.7632 174.388 14.4088C 175.262 14.053 176.237 13.8765 177.315 13.8765C 178.422 13.8765 179.415 14.0544 180.294 14.4088C 181.173 14.7647 181.917 15.2671 182.529 15.919C 183.141 16.5708 183.609 17.3536 183.934 18.2688C 184.259 19.184 184.423 20.1959 184.423 21.3047zM180.855 21.3047C 180.855 20.556 180.767 19.8942 180.592 19.3192C 180.417 18.7456 180.174 18.2631 179.863 17.8746C 179.552 17.486 179.179 17.1942 178.741 16.9992C 178.304 16.8042 177.828 16.7075 177.314 16.7075C 176.808 16.7075 176.341 16.8042 175.909 16.9992C 175.478 17.1942 175.106 17.486 174.796 17.8746C 174.485 18.2645 174.242 18.7456 174.067 19.3192C 173.893 19.8928 173.805 20.5546 173.805 21.3047C 173.805 22.0533 173.893 22.7152 174.067 23.2902C 174.242 23.8638 174.488 24.3434 174.803 24.7277C 175.118 25.112 175.492 25.4038 175.924 25.603C 176.355 25.8023 176.828 25.9019 177.344 25.9019C 177.858 25.9019 178.33 25.8023 178.757 25.603C 179.185 25.4038 179.552 25.112 179.863 24.7277C 180.174 24.3434 180.417 23.8638 180.592 23.2902C 180.767 22.7152 180.855 22.0533 180.855 21.3047z" fill="#787C82" />
    <path d="M200.424 21.3047C 200.424 22.4134 200.26 23.4254 199.929 24.3406C 199.598 25.2558 199.125 26.0386 198.509 26.6904C 197.892 27.3423 197.146 27.8461 196.273 28.2005C 195.4 28.5564 194.424 28.7329 193.346 28.7329C 192.239 28.7329 191.247 28.5549 190.368 28.2005C 189.488 27.8461 188.744 27.3423 188.132 26.6904C 187.52 26.0386 187.051 25.2558 186.727 24.3406C 186.402 23.4268 186.239 22.4134 186.239 21.3047C 186.239 20.1959 186.404 19.184 186.734 18.2688C 187.064 17.3551 187.538 16.5708 188.155 15.919C 188.771 15.2671 189.517 14.7632 190.39 14.4088C 191.264 14.053 192.239 13.8765 193.317 13.8765C 194.424 13.8765 195.417 14.0544 196.296 14.4088C 197.175 14.7647 197.919 15.2671 198.531 15.919C 199.143 16.5708 199.611 17.3536 199.936 18.2688C 200.261 19.184 200.424 20.1959 200.424 21.3047zM196.855 21.3047C 196.855 20.556 196.767 19.8942 196.593 19.3192C 196.418 18.7456 196.175 18.2631 195.864 17.8746C 195.553 17.486 195.179 17.1942 194.742 16.9992C 194.305 16.8042 193.829 16.7075 193.315 16.7075C 192.809 16.7075 192.342 16.8042 191.91 16.9992C 191.478 17.1942 191.106 17.486 190.796 17.8746C 190.485 18.2645 190.243 18.7456 190.068 19.3192C 189.893 19.8928 189.805 20.5546 189.805 21.3047C 189.805 22.0533 189.893 22.7152 190.068 23.2902C 190.243 23.8638 190.488 24.3434 190.804 24.7277C 191.119 25.112 191.492 25.4038 191.924 25.603C 192.356 25.8023 192.829 25.9019 193.344 25.9019C 193.859 25.9019 194.33 25.8023 194.758 25.603C 195.185 25.4038 195.553 25.112 195.864 24.7277C 196.175 24.3434 196.418 23.8638 196.593 23.2902C 196.769 22.7152 196.855 22.0533 196.855 21.3047z" fill="#787C82" />
    <path d="M209.184 24.2663C 209.184 23.9646 209.098 23.717 208.929 23.522C 208.759 23.327 208.533 23.1647 208.252 23.0323C 207.971 22.9014 207.648 22.7875 207.283 22.6893C 206.92 22.5926 206.538 22.4943 206.14 22.3976C 205.634 22.2609 205.15 22.1029 204.684 21.9236C 204.218 21.7443 203.808 21.508 203.454 21.2162C 203.099 20.9244 202.818 20.5572 202.609 20.1146C 202.4 19.672 202.295 19.1297 202.295 18.4878C 202.295 17.6993 202.436 17.0161 202.717 16.4368C 202.998 15.8575 203.38 15.3793 203.86 14.9993C 204.341 14.6193 204.899 14.3374 205.535 14.1524C 206.171 13.9674 206.843 13.8749 207.552 13.8749C 208.415 13.8749 209.226 13.946 209.983 14.0869C 210.74 14.2279 211.425 14.41 212.037 14.6335L212.037 14.6335L212.037 17.4516C 211.716 17.3449 211.379 17.2452 211.024 17.1527C 210.669 17.0602 210.31 16.9805 209.946 16.9122C 209.583 16.8439 209.221 16.7884 208.861 16.7442C 208.502 16.7001 208.162 16.6788 207.841 16.6788C 207.434 16.6788 207.089 16.7172 206.808 16.7955C 206.526 16.8738 206.298 16.9777 206.123 17.1086C 205.948 17.2395 205.822 17.3904 205.744 17.5612C 205.666 17.732 205.627 17.9085 205.627 18.0935C 205.627 18.4152 205.713 18.6771 205.882 18.882C 206.052 19.087 206.286 19.2521 206.587 19.3788C 206.888 19.5054 207.204 19.6093 207.535 19.6933C 207.864 19.7759 208.185 19.857 208.496 19.9338C 208.982 20.0505 209.466 20.1915 209.952 20.3566C 210.438 20.5217 210.874 20.7537 211.263 21.0497C 211.651 21.3472 211.969 21.7315 212.217 22.2026C 212.464 22.6751 212.588 23.2757 212.588 24.0045C 212.588 24.8029 212.438 25.4975 212.136 26.091C 211.835 26.6845 211.415 27.1784 210.877 27.5727C 210.338 27.9669 209.692 28.2587 208.939 28.448C 208.187 28.6373 207.36 28.7326 206.457 28.7326C 205.563 28.7326 204.759 28.6615 204.047 28.5206C 203.334 28.3797 202.743 28.2017 202.277 27.9883L202.277 27.9883L202.277 25.2014C 203.034 25.4833 203.733 25.6754 204.375 25.7779C 205.015 25.8804 205.613 25.9316 206.166 25.9316C 206.593 25.9316 206.991 25.9003 207.36 25.8362C 207.729 25.7736 208.046 25.674 208.314 25.5373C 208.581 25.4007 208.793 25.2285 208.948 25.0193C 209.107 24.81 209.184 24.5581 209.184 24.2663z" fill="#787C82" />
    <path d="M224 28.3528C 223.611 28.4695 223.148 28.562 222.609 28.6303C 222.071 28.6986 221.568 28.7328 221.102 28.7328C 219.918 28.7328 218.949 28.5407 218.197 28.1564C 217.444 27.7721 216.913 27.2198 216.602 26.4997C 216.379 25.9844 216.266 25.2842 216.266 24.3975L216.266 24.3975L216.266 17.0718L213.63 17.0718L213.63 14.2252L216.266 14.2252L216.266 10.2713L219.718 10.2713L219.718 14.2266L223.795 14.2266L223.795 17.0732L219.718 17.0732L219.718 23.9477C 219.718 24.4928 219.8 24.897 219.965 25.1589C 220.256 25.6073 220.834 25.8307 221.698 25.8307C 222.095 25.8307 222.491 25.7994 222.885 25.7354C 223.278 25.6727 223.649 25.5916 223.998 25.4948L223.998 25.4948L223.998 28.3528L224 28.3528z" fill="#787C82" />
    <path d="M50.6252 34.6344C 50.0403 33.7382 49.4963 32.8435 48.9507 31.9866C 51.8327 30.2335 52.806 28.8325 52.806 26.1832L52.806 26.1832L52.806 10.8767L49.4177 10.8767L49.4177 7.95688L56.6236 7.95688L56.6236 25.4049C 56.6236 29.8451 55.339 32.3372 50.6252 34.6344z" fill="#000000" />
    <path d="M80.8104 24.1971C 80.8104 25.6767 81.8622 25.8324 82.5635 25.8324C 83.2647 25.8324 84.2773 25.5981 85.0556 25.3654L85.0556 25.3654L85.0556 28.0918C 83.9645 28.4424 82.8355 28.7144 81.2774 28.7144C 79.4079 28.7144 77.2271 28.0132 77.2271 24.7412L77.2271 24.7412L77.2271 16.7177L75.2412 16.7177L75.2412 13.952L77.2271 13.952L77.2271 9.86392L80.8104 9.86392L80.8104 13.9535L85.3277 13.9535L85.3277 16.7192L80.8104 16.7192L80.8104 24.1971z" fill="#000000" />
    <path d="M88.2886 35.9972L88.2886 13.914L91.7162 13.914L91.7162 15.2379C 93.0794 14.1861 94.5983 13.5241 96.4678 13.5241C 99.7004 13.5241 102.271 15.7835 102.271 20.6514C 102.271 25.4815 99.4677 28.6749 94.8325 28.6749C 93.7036 28.6749 92.8074 28.5193 91.8719 28.3243L91.8719 28.3243L91.8719 35.9579L88.2886 35.9579L88.2886 35.9972zM95.5323 16.4848C 94.4804 16.4848 93.1565 16.991 91.9097 18.0822L91.9097 18.0822L91.9097 25.5994C 92.688 25.7551 93.5071 25.8715 94.5968 25.8715C 97.1282 25.8715 98.57 24.274 98.57 20.925C 98.57 17.848 97.5181 16.4848 95.5323 16.4848z" fill="#000000" />
    <path d="M116.368 28.3637L113.019 28.3637L113.019 26.7663L112.941 26.7663C 111.772 27.6625 110.331 28.6358 108.189 28.6358C 106.32 28.6358 104.294 27.2726 104.294 24.5069C 104.294 20.8072 107.449 20.106 109.669 19.7946L109.669 19.7946L112.823 19.3669L112.823 18.9392C 112.823 16.9912 112.044 16.3685 110.213 16.3685C 109.317 16.3685 107.214 16.6406 105.5 17.3418L105.5 17.3418L105.189 14.4597C 106.747 13.9142 108.889 13.5258 110.681 13.5258C 114.186 13.5258 116.445 14.9282 116.445 19.0949L116.445 19.0949L116.445 28.3637L116.368 28.3637zM112.785 21.6264L109.824 22.0933C 108.928 22.2097 107.994 22.7553 107.994 24.0792C 107.994 25.2474 108.656 25.9094 109.629 25.9094C 110.681 25.9094 111.81 25.2867 112.783 24.5855L112.783 24.5855L112.783 21.6264L112.785 21.6264z" fill="#000000" />
    <path d="M131.169 27.8968C 129.689 28.403 128.365 28.7144 126.689 28.7144C 121.315 28.7144 119.172 25.6374 119.172 21.1594C 119.172 16.4471 122.133 13.5258 126.922 13.5258C 128.713 13.5258 129.804 13.8371 131.011 14.227L131.011 14.227L131.011 17.2647C 129.96 16.8748 128.441 16.4471 126.961 16.4471C 124.78 16.4471 122.911 17.6153 122.911 20.9644C 122.911 24.6641 124.78 25.7945 127.156 25.7945C 128.285 25.7945 129.532 25.5603 131.206 24.8983L131.206 24.8983L131.206 27.8968L131.169 27.8968z" fill="#000000" />
    <path d="M137.945 20.1468C 138.257 19.7962 138.491 19.4455 143.008 13.9535L143.008 13.9535L147.681 13.9535L141.839 20.8087L148.225 28.403L143.552 28.403L137.983 21.5478L137.983 28.403L134.401 28.403L134.401 7.9566L137.985 7.9566L137.985 20.1468L137.945 20.1468z" fill="#000000" />
    <path d="M72.5529 27.8966C 70.6834 28.4815 69.086 28.7142 67.2165 28.7142C 62.6206 28.7142 59.7778 26.417 59.7778 21.0413C 59.7778 17.1074 62.1929 13.5241 66.8266 13.5241C 71.4224 13.5241 73.0199 16.7175 73.0199 19.7552C 73.0199 20.7678 72.9413 21.3134 72.9035 21.8967L72.9035 21.8967L63.6347 21.8967C 63.7133 25.0508 65.5042 25.7914 68.1913 25.7914C 69.6708 25.7914 70.9947 25.4407 72.5151 24.8952L72.5151 24.8952L72.5151 27.8936L72.5529 27.8936L72.5529 27.8966zM69.2824 19.5225C 69.2824 17.7694 68.6976 16.2505 66.7903 16.2505C 64.9994 16.2505 63.9082 17.5351 63.674 19.5225L63.674 19.5225L69.2824 19.5225z" fill="#000000" />
    <path d="M20 0C 8.96947 0 0 8.96947 0 20C 0 31.0305 8.96947 40 20 40C 31.0305 40 40 31.0305 40 20C 40 8.96947 31.0305 0 20 0zM18.9695 23.3206L9.00763 23.3206L18.9695 3.9313L18.9695 23.3206zM20.9924 36.0305L20.9924 16.6412L30.9542 16.6412L20.9924 36.0305z" fill="#069E08" />
</g>
</svg>
